src/assets/filled/Warning2.svg

<svg width="24" height="24" viewBox="0 0 24 24"  xmlns="http://www.w3.org/2000/svg">
<path d="M19.5099 5.85L13.5699 2.42C12.5999 1.86 11.3999 1.86 10.4199 2.42L4.48992 5.85C3.51992 6.41 2.91992 7.45 2.91992 8.58V15.42C2.91992 16.54 3.51992 17.58 4.48992 18.15L10.4299 21.58C11.3999 22.14 12.5999 22.14 13.5799 21.58L19.5199 18.15C20.4899 17.59 21.0899 16.55 21.0899 15.42V8.58C21.0799 7.45 20.4799 6.42 19.5099 5.85ZM11.2499 7.75C11.2499 7.34 11.5899 7 11.9999 7C12.4099 7 12.7499 7.34 12.7499 7.75V13C12.7499 13.41 12.4099 13.75 11.9999 13.75C11.5899 13.75 11.2499 13.41 11.2499 13V7.75ZM12.9199 16.63C12.8699 16.75 12.7999 16.86 12.7099 16.96C12.5199 17.15 12.2699 17.25 11.9999 17.25C11.8699 17.25 11.7399 17.22 11.6199 17.17C11.4899 17.12 11.3899 17.05 11.2899 16.96C11.1999 16.86 11.1299 16.75 11.0699 16.63C11.0199 16.51 10.9999 16.38 10.9999 16.25C10.9999 15.99 11.0999 15.73 11.2899 15.54C11.3899 15.45 11.4899 15.38 11.6199 15.33C11.9899 15.17 12.4299 15.26 12.7099 15.54C12.7999 15.64 12.8699 15.74 12.9199 15.87C12.9699 15.99 12.9999 16.12 12.9999 16.25C12.9999 16.38 12.9699 16.51 12.9199 16.63Z" />
</svg>

<?xml version="1.0" encoding="UTF-8"?>
<svg width="24" height="24" viewBox="0 0 24 24" xmlns="http://www.w3.org/2000/svg">
 <path d="m19.51 5.85-5.94-3.43c-0.97-0.56-2.17-0.56-3.15 0l-5.93 3.43c-0.97 0.56-1.57 1.6-1.57 2.73v6.84c0 1.12 0.6 2.16 1.57 2.73l5.94 3.43c0.97 0.56 2.17 0.56 3.15 0l5.94-3.43c0.97-0.56 1.57-1.6 1.57-2.73v-6.84c-0.01-1.13-0.61-2.16-1.58-2.73zm-8.26 1.9c0-0.41 0.34-0.75 0.75-0.75s0.75 0.34 0.75 0.75v5.25c0 0.41-0.34 0.75-0.75 0.75s-0.75-0.34-0.75-0.75v-5.25zm1.67 8.88c-0.05 0.12-0.12 0.23-0.21 0.33-0.19 0.19-0.44 0.29-0.71 0.29-0.13 0-0.26-0.03-0.38-0.08-0.13-0.05-0.23-0.12-0.33-0.21-0.09-0.1-0.16-0.21-0.22-0.33-0.05-0.12-0.07-0.25-0.07-0.38 0-0.26 0.1-0.52 0.29-0.71 0.1-0.09 0.2-0.16 0.33-0.21 0.37-0.16 0.81-0.07 1.09 0.21 0.09 0.1 0.16 0.2 0.21 0.33 0.05 0.12 0.08 0.25 0.08 0.38s-0.03 0.26-0.08 0.38z"/>
</svg>
